styles/4/Numix/32/actions/green-document-open.svg

<!-- Created with Inkscape (http://www.inkscape.org/) -->
<svg xmlns="http://www.w3.org/2000/svg" viewBox="0 0 32 32">
 <g transform="translate(0,-1020.3622)">
  <path d="m 4 2 c -0.589 0 -1 0.383 -1 1 l 0 14 c 0 1 0.5 1.5 1.5 1.5 l 23.5 0 1 0 l 0 -12.5 -4 -4 z" transform="translate(0,1020.3622)" style="fill:#e3e1cf;fill-opacity:1;stroke:none"/>
  <rect width="30" height="15" x="1" y="1034.36" rx="2" style="fill:#66bb6a;fill-opacity:1;stroke:none"/>
  <path d="m 3 14 c -1.108 0 -2 0.892 -2 2 l 0 2 c 0 -1.108 0.892 -2 2 -2 l 26 0 c 1.108 0 2 0.892 2 2 l 0 -2 c 0 -1.108 -0.892 -2 -2 -2 l -26 0 z" transform="translate(0,1020.3622)" style="fill:#fff;opacity:0.1;fill-opacity:1;stroke:none"/>
  <path d="m 25 1022.36 0 4 4 0 z" style="fill:#fff;fill-opacity:1;stroke:none"/>
  <path d="m 29 1030.36 0 -4 -4 0 z" style="fill:#000;opacity:0.2;fill-opacity:1;stroke:none"/>
  <rect width="16" height="2" x="6" y="1024.36" rx="1" style="fill:#a1a195;fill-opacity:1;stroke:none"/>
  <rect rx="1" y="1027.36" x="6" height="2" width="18" style="fill:#a1a195;fill-opacity:1;stroke:none"/>
  <rect width="18" height="2" x="6" y="1030.36" rx="1" style="fill:#a1a195;fill-opacity:1;stroke:none"/>
 </g>
</svg>

<?xml version="1.0" encoding="UTF-8" standalone="no"?>
<!-- Created with Inkscape (http://www.inkscape.org/) -->

<svg
   xmlns:dc="http://purl.org/dc/elements/1.1/"
   xmlns:cc="http://creativecommons.org/ns#"
   xmlns:rdf="http://www.w3.org/1999/02/22-rdf-syntax-ns#"
   xmlns:svg="http://www.w3.org/2000/svg"
   xmlns="http://www.w3.org/2000/svg"
   xmlns:sodipodi="http://sodipodi.sourceforge.net/DTD/sodipodi-0.dtd"
   xmlns:inkscape="http://www.inkscape.org/namespaces/inkscape"
   width="32"
   height="32"
   id="svg2"
   version="1.1"
   inkscape:version="0.91 r"
   sodipodi:docname="green-document-open.svg"
   inkscape:export-filename="/media/Data/Main/Visuals/Icons/Numix/Desktop/repos/numix-wiki/Gjorgi/Numix-folders/48/New/folder-144.png"
   inkscape:export-xdpi="270"
   inkscape:export-ydpi="270">
  <defs
     id="defs4" />
  <sodipodi:namedview
     id="base"
     pagecolor="#ffffff"
     bordercolor="#666666"
     borderopacity="1.0"
     inkscape:pageopacity="0.0"
     inkscape:pageshadow="2"
     inkscape:zoom="83.20322"
     inkscape:cx="22.276637"
     inkscape:cy="24.390735"
     inkscape:document-units="px"
     inkscape:current-layer="layer1"
     showgrid="true"
     inkscape:window-width="1920"
     inkscape:window-height="1023"
     inkscape:window-x="0"
     inkscape:window-y="28"
     inkscape:window-maximized="1"
     showguides="true"
     inkscape:guide-bbox="true">
    <inkscape:grid
       type="xygrid"
       id="grid2985"
       empspacing="5"
       visible="true"
       enabled="true"
       snapvisiblegridlinesonly="true" />
  </sodipodi:namedview>
  <metadata
     id="metadata7">
    <rdf:RDF>
      <cc:Work
         rdf:about="">
        <dc:format>image/svg+xml</dc:format>
        <dc:type
           rdf:resource="http://purl.org/dc/dcmitype/StillImage" />
        <dc:title />
      </cc:Work>
    </rdf:RDF>
  </metadata>
  <g
     inkscape:label="Layer 1"
     inkscape:groupmode="layer"
     id="layer1"
     transform="translate(0,-1020.3622)">
    <path
       style="fill:#e3e1cf;fill-opacity:1;stroke:none"
       d="M 4,2 C 3.4114831,2 3,2.3831 3,3 l 0,14 c 0,0.9997 0.5,1.5 1.5,1.5 l 23.5,0 1,0 L 29,6 25,2 z"
       transform="translate(0,1020.3622)"
       id="path3811"
       inkscape:connector-curvature="0"
       sodipodi:nodetypes="ssssccccs" />
    <rect
       style="fill:#66bb6a;fill-opacity:1;stroke:none"
       id="rect2990"
       width="30"
       height="15"
       x="1"
       y="1034.3622"
       rx="2"
       ry="2" />
    <path
       style="fill:#ffffff;fill-opacity:1;stroke:none;opacity:0.1"
       d="M 3 14 C 1.892 14 1 14.892 1 16 L 1 18 C 1 16.892 1.892 16 3 16 L 29 16 C 30.108 16 31 16.892 31 18 L 31 16 C 31 14.892 30.108 14 29 14 L 3 14 z "
       transform="translate(0,1020.3622)"
       id="rect2991" />
    <path
       style="fill:#ffffff;fill-opacity:1;stroke:none"
       d="m 25,1022.3622 0,4 4,0 z"
       id="path3802"
       inkscape:connector-curvature="0"
       sodipodi:nodetypes="cccc" />
    <path
       sodipodi:nodetypes="cccc"
       inkscape:connector-curvature="0"
       id="path3807"
       d="m 29,1030.3622 0,-4 -4,0 z"
       style="opacity:0.2;fill:#000000;fill-opacity:1;stroke:none" />
    <rect
       style="fill:#a1a195;fill-opacity:1;stroke:none"
       id="rect3794"
       width="16"
       height="2.0000174"
       x="6"
       y="1024.3622"
       rx="1"
       ry="1" />
    <rect
       ry="1"
       rx="1"
       y="1027.3622"
       x="6"
       height="2.0000174"
       width="18"
       id="rect3796"
       style="fill:#a1a195;fill-opacity:1;stroke:none" />
    <rect
       style="fill:#a1a195;fill-opacity:1;stroke:none"
       id="rect3867"
       width="18"
       height="2.0000174"
       x="6"
       y="1030.3622"
       rx="1"
       ry="1" />
  </g>
</svg>
